!!!OTL: Die Hoellenmaschine.
!!!OTL-incipit: IN DEN HEISSEN JULITAGEN
!!!COM: Volksweise
!!!ARE: Europa, Mitteleuropa, Deutschland
!!!SCT: F0853
!!!TXL: @@DE
!!!YEM: Copyright 1995, estate of Helmut Schaffrath.
**kern	**text
*ICvox	*
*clefG2	*
*M2/4	*
*k[f#]	*
*G:	*
=1	=1
{8d^^	1._Jn
8b/	den
8b/	heißen
8a	.
=2	=2
8a^^	Ju-
8g	-li-
[>8g	-ta-
8g]}	-gen
=3	=3
{8b^^	hat
8dd	ſich
8dd	Solches
8cc	.
=4	=4
8b^^	ʒu-
8dd	-ge-
[>8dd	-tragen,
8dd]}	.
=5	=5
{8.cc	in
16ee	Pa-
8ee	-ris,
8cc	der
=6	=6
8b^^	gro-
8dd	-ßen
4dd}	Stadt
=7	=7
{8.a\	das
16cc	be-
8cc	-wuß-
8a	-te
=8	=8
8a^^	At-
8g	-ten-
4g}	-tat.
==	==
!!!AGN: erzaehlendes Volks - Lied, Ballade, Attentat, Spott
!!!ONB: ESAC (Essen Associative Code) Database: FINK
!!!AMT: simple duple
!!!AIN: vox
!!!EED: Helmut Schaffrath
!!!EEV: 1.0
!!Text: Weil. Leipziger Student
!!!GTL: Romanzen und Balladen
!!!source: Musikalischer Hausschatz der Deutschen. Eine Sammlung von über 1000 Liedern und Gesängen mit Singstimmen und Klavierbegleitung. Leipzig, Litterarisches Verlags-Haus.
!!!page: 608
!!!URL-scan: https://www.digitale-sammlungen.de/en/view/bsb11144622?page=544
!!!ENC: Anna Maria Matuszewska
!!!EEV: 2024/08/07
*-	*-